EmbedPress/Ends/Back/Settings/assets/img/sources/source-settings.svg

<svg width="16" height="16" viewBox="0 0 16 16" fill="none" xmlns="http://www.w3.org/2000/svg">
<g clip-path="url(#clip0_59_4292)">
<path d="M6.88333 2.878C7.16733 1.70733 8.83267 1.70733 9.11667 2.878C9.15928 3.05387 9.24281 3.21719 9.36047 3.35467C9.47813 3.49215 9.62659 3.5999 9.79377 3.66916C9.96094 3.73843 10.1421 3.76723 10.3225 3.75325C10.5029 3.73926 10.6775 3.68287 10.832 3.58867C11.8607 2.962 13.0387 4.13933 12.412 5.16867C12.3179 5.3231 12.2616 5.49756 12.2477 5.67785C12.2337 5.85814 12.2625 6.03918 12.3317 6.20625C12.4009 6.37333 12.5085 6.52172 12.6458 6.63937C12.7831 6.75702 12.9463 6.8406 13.122 6.88333C14.2927 7.16733 14.2927 8.83267 13.122 9.11667C12.9461 9.15928 12.7828 9.24281 12.6453 9.36047C12.5079 9.47813 12.4001 9.62659 12.3308 9.79377C12.2616 9.96094 12.2328 10.1421 12.2468 10.3225C12.2607 10.5029 12.3171 10.6775 12.4113 10.832C13.038 11.8607 11.8607 13.0387 10.8313 12.412C10.6769 12.3179 10.5024 12.2616 10.3222 12.2477C10.1419 12.2337 9.96082 12.2625 9.79375 12.3317C9.62667 12.4009 9.47828 12.5085 9.36063 12.6458C9.24298 12.7831 9.1594 12.9463 9.11667 13.122C8.83267 14.2927 7.16733 14.2927 6.88333 13.122C6.84072 12.9461 6.75719 12.7828 6.63953 12.6453C6.52187 12.5079 6.37341 12.4001 6.20623 12.3308C6.03906 12.2616 5.85789 12.2328 5.67748 12.2468C5.49706 12.2607 5.3225 12.3171 5.168 12.4113C4.13933 13.038 2.96133 11.8607 3.588 10.8313C3.68207 10.6769 3.73837 10.5024 3.75232 10.3222C3.76628 10.1419 3.7375 9.96082 3.66831 9.79375C3.59913 9.62667 3.49151 9.47828 3.35418 9.36063C3.21686 9.24298 3.05371 9.1594 2.878 9.11667C1.70733 8.83267 1.70733 7.16733 2.878 6.88333C3.05387 6.84072 3.21719 6.75719 3.35467 6.63953C3.49215 6.52187 3.5999 6.37341 3.66916 6.20623C3.73843 6.03906 3.76723 5.85789 3.75325 5.67748C3.73926 5.49706 3.68287 5.3225 3.58867 5.168C2.962 4.13933 4.13933 2.96133 5.16867 3.588C5.83533 3.99333 6.69933 3.63467 6.88333 2.878Z" stroke="#988FBD" stroke-linecap="round" stroke-linejoin="round"/>
<path d="M6 8C6 8.53043 6.21071 9.03914 6.58579 9.41421C6.96086 9.78929 7.46957 10 8 10C8.53043 10 9.03914 9.78929 9.41421 9.41421C9.78929 9.03914 10 8.53043 10 8C10 7.46957 9.78929 6.96086 9.41421 6.58579C9.03914 6.21071 8.53043 6 8 6C7.46957 6 6.96086 6.21071 6.58579 6.58579C6.21071 6.96086 6 7.46957 6 8Z" stroke="#988FBD" stroke-linecap="round" stroke-linejoin="round"/>
</g>
<defs>
<clipPath id="clip0_59_4292">
<rect width="16" height="16" fill="white"/>
</clipPath>
</defs>
</svg>

<svg width="16" height="16" viewBox="0 0 16 16" fill="none" xmlns="http://www.w3.org/2000/svg"><g clip-path="url(#a)" stroke="#988FBD" stroke-linecap="round" stroke-linejoin="round"><path d="M6.883 2.878c.284-1.17 1.95-1.17 2.234 0a1.15 1.15 0 0 0 1.715.71c1.029-.626 2.207.551 1.58 1.58a1.148 1.148 0 0 0 .71 1.715c1.17.284 1.17 1.95 0 2.234a1.15 1.15 0 0 0-.71 1.715c.626 1.029-.551 2.207-1.58 1.58a1.148 1.148 0 0 0-1.715.71c-.284 1.17-1.95 1.17-2.234 0a1.15 1.15 0 0 0-1.715-.71c-1.029.626-2.207-.551-1.58-1.58a1.15 1.15 0 0 0-.71-1.715c-1.17-.284-1.17-1.95 0-2.234a1.15 1.15 0 0 0 .71-1.715c-.626-1.029.551-2.207 1.58-1.58a1.149 1.149 0 0 0 1.715-.71Z"/><path d="M6 8a2 2 0 1 0 4 0 2 2 0 0 0-4 0Z"/></g><defs><clipPath id="a"><path fill="#fff" d="M0 0h16v16H0z"/></clipPath></defs></svg>
